svg/u1f621.svg

<svg viewBox="0 0 128 128" xmlns="http://www.w3.org/2000/svg">
  <g id="gold">
    <radialGradient id="pouting-face_1_" cx="63.6" cy="2584.8999" gradientTransform="matrix(1 0 0 1 0 -2522)" gradientUnits="userSpaceOnUse" r="56.9597">
      <stop offset="0.12" stop-color="#FAC742"/>
      <stop offset="0.32" stop-color="#FAC440"/>
      <stop offset="0.48" stop-color="#FBBA3B"/>
      <stop offset="0.62" stop-color="#FBA931"/>
      <stop offset="0.76" stop-color="#FC9224"/>
      <stop offset="0.88" stop-color="#FE7413"/>
      <stop offset="1" stop-color="#FF5100"/>
    </radialGradient>
    <path id="pouting-face" d="M63.6,118.8c-27.9,0-58-17.5-58-55.9S35.7,7,63.6,7 c15.5,0,29.8,5.1,40.4,14.4c11.5,10.2,17.6,24.6,17.6,41.5s-6.1,31.2-17.6,41.4C93.4,113.6,79,118.8,63.6,118.8z" fill="url(#pouting-face_1_)"/>
    <path d="M111.49,29.67c5.33,8.6,8.11,18.84,8.11,30.23c0,16.9-6.1,31.2-17.6,41.4 c-10.6,9.3-25,14.5-40.4,14.5c-18.06,0-37-7.35-48.18-22.94c10.76,17.66,31,25.94,50.18,25.94c15.4,0,29.8-5.2,40.4-14.5 c11.5-10.2,17.6-24.5,17.6-41.4C121.6,50.16,118.13,38.84,111.49,29.67z" fill="#D84213"/>
  </g>
  <g id="facial_expressions">
    <g id="pouting-face-2">
      <path id="mouth" d="M83.94,103.14c-0.34-0.13-0.65-0.34-0.89-0.62c-9.73-10.11-25.82-10.42-35.93-0.69 c-0.23,0.23-0.47,0.46-0.69,0.69c-0.24,0.28-0.55,0.49-0.89,0.62c-0.75,0.28-1.6,0.12-2.2-0.41c-0.59-0.52-0.79-1.35-0.49-2.08 C45.83,93,54.69,87,64.74,87s18.91,6,21.89,13.64c0.3,0.73,0.1,1.56-0.49,2.08C85.54,103.25,84.69,103.41,83.94,103.14z" fill="#422B0D"/>
      <g id="eyes">
        <path d="M58.14,68.82C55.9,66,46.67,60.58,43.34,59c-1.24-0.57-2.53-1.03-3.85-1.37 c-0.24-0.07-0.5-0.1-0.75-0.1c-1.33,0.03-2.47,0.98-2.74,2.29c-0.31,1.36,0.39,2.76,1.67,3.32c1.57,0.77,4.31,2.23,7.15,3.84 C42.45,68.39,41,70.95,41,73.71v1.46c0,4.14,3.36,7.5,7.5,7.5s7.5-3.36,7.5-7.5v-1.46c0-0.06,0-0.11,0-0.17 c1.07-0.07,2.03-0.71,2.5-1.67C58.99,70.87,58.85,69.68,58.14,68.82z" fill="#422B0D"/>
        <path d="M93.52,59.82c-0.28-1.32-1.44-2.26-2.79-2.27c-0.25,0-0.51,0.03-0.75,0.1 c-1.32,0.33-2.61,0.79-3.85,1.35c-3.33,1.56-12.56,7-14.8,9.8c-0.71,0.87-0.83,2.07-0.33,3.07c0.48,0.97,1.43,1.6,2.51,1.67 c0,0.06,0,0.11,0,0.17v1.46c0,4.14,3.36,7.5,7.5,7.5s7.5-3.36,7.5-7.5v-1.46c0-2.75-1.45-5.3-3.81-6.71 c2.84-1.61,5.58-3.07,7.15-3.84C93.14,62.6,93.85,61.19,93.52,59.82z" fill="#422B0D"/>
      </g>
    </g>
    <g id="peepers">
      <path d="M48.12,68.45L48.12,68.45c-1.42-0.68-3.13-0.08-3.82,1.34c-0.53,1.11-0.29,2.44,0.6,3.3l0,0 c1.42,0.68,3.13,0.08,3.82-1.34C49.25,70.64,49.01,69.31,48.12,68.45z" fill="#896024"/>
    </g>
    <g id="peepers-2">
      <path d="M80.63,68.45L80.63,68.45c-1.42-0.68-3.13-0.08-3.82,1.34c-0.53,1.11-0.29,2.44,0.6,3.3l0,0 c1.42,0.68,3.13,0.08,3.82-1.34C81.76,70.64,81.52,69.31,80.63,68.45z" fill="#896024"/>
    </g>
  </g>
</svg>

<svg viewBox="0 0 128 128" xmlns="http://www.w3.org/2000/svg">
  <defs>
    <radialGradient id="pouting-face_1_" cx="63.6" cy="62.8999" gradientUnits="userSpaceOnUse" r="56.9597">
      <stop offset="0.12" stop-color="#FAC742"/>
      <stop offset="0.32" stop-color="#FAC440"/>
      <stop offset="0.48" stop-color="#FBBA3B"/>
      <stop offset="0.62" stop-color="#FBA931"/>
      <stop offset="0.76" stop-color="#FC9224"/>
      <stop offset="0.88" stop-color="#FE7413"/>
      <stop offset="1" stop-color="#FF5100"/>
    </radialGradient>
  </defs>
  <path id="pouting-face" d="M63.6,118.8 C35.7,118.8 5.6,101.3 5.6,62.9 C5.6,24.5 35.7,7 63.6,7 C79.1,7 93.4,12.1 104,21.4 C115.5,31.6 121.6,46 121.6,62.9 C121.6,79.8 115.5,94.1 104,104.3 C93.4,113.6 79,118.8 63.6,118.8 Z" fill="url(#pouting-face_1_)"/>
  <path d="M111.49,29.67 C116.82,38.27 119.6,48.51 119.6,59.9 C119.6,76.8 113.5,91.1 102,101.3 C91.4,110.6 77,115.8 61.6,115.8 C43.54,115.8 24.6,108.45 13.42,92.86 C24.18,110.52 44.42,118.8 63.6,118.8 C79,118.8 93.4,113.6 104,104.3 C115.5,94.1 121.6,79.8 121.6,62.9 C121.6,50.16 118.13,38.84 111.49,29.67 Z" fill="#D84213"/>
  <path id="mouth" d="M83.94,103.14 C83.6,103.01 83.29,102.8 83.05,102.52 C73.32,92.41 57.23,92.1 47.12,101.83 C46.89,102.06 46.65,102.29 46.43,102.52 C46.19,102.8 45.88,103.01 45.54,103.14 C44.79,103.42 43.94,103.26 43.34,102.73 C42.75,102.21 42.55,101.38 42.85,100.65 C45.83,93 54.69,87 64.74,87 C74.79,87 83.65,93 86.63,100.64 C86.93,101.37 86.73,102.2 86.14,102.72 C85.54,103.25 84.69,103.41 83.94,103.14 Z" fill="#422B0D"/>
  <path d="M58.14,68.82 C55.9,66 46.67,60.58 43.34,59 C42.1,58.43 40.81,57.97 39.49,57.63 C39.25,57.56 38.99,57.53 38.74,57.53 C37.41,57.56 36.27,58.51 36,59.82 C35.69,61.18 36.39,62.58 37.67,63.14 C39.24,63.91 41.98,65.37 44.82,66.98 C42.45,68.39 41,70.95 41,73.71 L41,75.17 C41,79.31 44.36,82.67 48.5,82.67 C52.64,82.67 56,79.31 56,75.17 L56,73.71 C56,73.65 56,73.6 56,73.54 C57.07,73.47 58.03,72.83 58.5,71.87 C58.99,70.87 58.85,69.68 58.14,68.82 Z" fill="#422B0D"/>
  <path d="M93.52,59.82 C93.24,58.5 92.08,57.56 90.73,57.55 C90.48,57.55 90.22,57.58 89.98,57.65 C88.66,57.98 87.37,58.44 86.13,59 C82.8,60.56 73.57,66 71.33,68.8 C70.62,69.67 70.5,70.87 71,71.87 C71.48,72.84 72.43,73.47 73.51,73.54 C73.51,73.6 73.51,73.65 73.51,73.71 L73.51,75.17 C73.51,79.31 76.87,82.67 81.01,82.67 C85.15,82.67 88.51,79.31 88.51,75.17 L88.51,73.71 C88.51,70.96 87.06,68.41 84.7,67 C87.54,65.39 90.28,63.93 91.85,63.16 C93.14,62.6 93.85,61.19 93.52,59.82 Z" fill="#422B0D"/>
  <path d="M48.12,68.45 L48.12,68.45 C46.7,67.77 44.99,68.37 44.3,69.79 C43.77,70.9 44.01,72.23 44.9,73.09 L44.9,73.09 C46.32,73.77 48.03,73.17 48.72,71.75 C49.25,70.64 49.01,69.31 48.12,68.45 Z" fill="#896024"/>
  <path d="M80.63,68.45 L80.63,68.45 C79.21,67.77 77.5,68.37 76.81,69.79 C76.28,70.9 76.52,72.23 77.41,73.09 L77.41,73.09 C78.83,73.77 80.54,73.17 81.23,71.75 C81.76,70.64 81.52,69.31 80.63,68.45 Z" fill="#896024"/>
</svg>
